icons/src/svg/settings.svg

<svg width="32" height="32" viewBox="0 0 32 32" fill="none" xmlns="http://www.w3.org/2000/svg">
<path fill-rule="evenodd" clip-rule="evenodd" d="M15.9439 9.82812C12.5709 9.82812 9.83643 12.5626 9.83643 15.9356C9.83643 19.3087 12.5709 22.0432 15.9439 22.0432C19.317 22.0432 22.0515 19.3087 22.0515 15.9356C22.0515 12.5626 19.317 9.82812 15.9439 9.82812ZM11.8364 15.9356C11.8364 13.6671 13.6754 11.8281 15.9439 11.8281C18.2125 11.8281 20.0515 13.6671 20.0515 15.9356C20.0515 18.2042 18.2125 20.0432 15.9439 20.0432C13.6754 20.0432 11.8364 18.2042 11.8364 15.9356Z" fill="#0D0F13"/>
<path fill-rule="evenodd" clip-rule="evenodd" d="M14.4684 1.98047C13.7446 1.98047 13.1404 2.43652 12.91 3.0895L12.9067 3.09864L12.2106 5.19999C11.8746 5.31776 11.5483 5.45012 11.228 5.59922L9.16501 4.52906C8.50857 4.17024 7.73195 4.31027 7.22823 4.81399L5.14523 6.897C4.63788 7.40435 4.51152 8.1686 4.83161 8.8088L5.82733 10.7492C5.58922 11.2162 5.37762 11.7059 5.19996 12.2117L3.11339 12.9072L3.10512 12.9101C2.45214 13.1406 1.99609 13.7447 1.99609 14.4685V17.4352C1.99609 18.1591 2.45214 18.7632 3.10512 18.9937L3.11426 18.9969L5.21847 19.694C5.37644 20.1379 5.56056 20.5689 5.76717 20.9869L4.86005 22.7391C4.50153 23.3954 4.64162 24.1718 5.14523 24.6754L7.24236 26.7725L7.25705 26.7861C7.759 27.2494 8.50521 27.3737 9.14005 27.0563L10.9136 26.1381C11.332 26.3459 11.7675 26.5295 12.211 26.6862L12.907 28.7745L12.91 28.7827C13.1404 29.4357 13.7446 29.8918 14.4684 29.8918H17.4193C18.1431 29.8918 18.7473 29.4357 18.9777 28.7827L18.981 28.7736L19.6781 26.6694C20.122 26.5114 20.553 26.3273 20.971 26.1207L22.7231 27.0278C23.3794 27.3863 24.1559 27.2462 24.6595 26.7426L26.7566 24.6455L26.7702 24.6308C27.2335 24.1289 27.3578 23.3827 27.0403 22.7478L26.1221 20.9743C26.3298 20.5562 26.5132 20.1211 26.6699 19.678L28.7734 18.9811L28.7826 18.9779C29.4356 18.7474 29.8916 18.1433 29.8916 17.4195V14.437C29.8916 13.7132 29.4356 13.109 28.7826 12.8786L28.7734 12.8753L26.6732 12.1796C26.4997 11.6783 26.293 11.1867 26.0485 10.7131L27.0279 8.8171C27.3861 8.16084 27.246 7.3847 26.7425 6.88122L24.6453 4.78408L24.6306 4.77052C24.1287 4.30719 23.3825 4.18301 22.7477 4.50043L22.741 4.50376L20.6493 5.58883C20.3314 5.44669 20.0068 5.31792 19.6779 5.20236L18.981 3.09864L18.9777 3.0895C18.7473 2.43651 18.1431 1.98047 17.4193 1.98047H14.4684ZM13.7865 6.80284L14.7215 3.98047H17.1662L18.0998 6.7986L18.5928 6.95029C19.1593 7.1246 19.7074 7.34132 20.2228 7.59905L20.6784 7.82684L23.4315 6.39867L25.1423 8.10951L23.7726 10.7611L24.054 11.2373C24.4169 11.8514 24.7024 12.5324 24.9197 13.2568L25.0692 13.7551L27.8916 14.6901V17.1664L25.0716 18.1006L24.9209 18.5959C24.7199 19.2562 24.4478 19.8995 24.1217 20.4808L23.8579 20.951L25.1422 23.4315L23.4313 25.1423L20.9567 23.8611L20.4896 24.1169C19.8814 24.45 19.2502 24.7218 18.5957 24.921L18.1004 25.0718L17.1662 27.8918H14.721L13.7862 25.0872L13.292 24.9368C12.6317 24.7359 11.9883 24.4637 11.4071 24.1377L10.9368 23.8739L8.45635 25.1581L6.74553 23.4473L8.02674 20.9726L7.77093 20.5055C7.43789 19.8973 7.16601 19.2662 6.96681 18.6117L6.81607 18.1164L3.99609 17.1821V14.7212L6.80303 13.7855L6.95218 13.2883C7.16602 12.5755 7.46678 11.8871 7.82641 11.2542L8.09335 10.7844L6.73443 8.13622L8.4562 6.41445L11.2216 7.84902L11.6844 7.60479C12.1925 7.33662 12.716 7.12398 13.2882 6.95234L13.7865 6.80284Z" fill="#0D0F13"/>
</svg>

<svg fill="none" xmlns="http://www.w3.org/2000/svg" viewBox="0 0 32 32">
  <path fill-rule="evenodd" clip-rule="evenodd" d="m13.787 6.803.935-2.823h2.444l.934 2.818.493.152c.567.174 1.115.391 1.63.649l.456.228 2.753-1.428 1.71 1.71-1.37 2.652.282.476c.363.614.649 1.295.866 2.02l.15.498 2.822.935v2.476l-2.82.934-.15.496c-.202.66-.474 1.303-.8 1.885l-.264.47 1.284 2.48-1.71 1.711-2.475-1.281-.467.256c-.608.333-1.24.605-1.894.804l-.495.15-.935 2.82h-2.445l-.935-2.804-.494-.15a9.596 9.596 0 0 1-1.885-.8l-.47-.263-2.48 1.284-1.711-1.71 1.281-2.476-.256-.467a10.015 10.015 0 0 1-.804-1.893l-.15-.496-2.82-.934v-2.461l2.806-.936.15-.497a9.903 9.903 0 0 1 .874-2.034l.267-.47-1.36-2.648 1.722-1.722 2.766 1.435.463-.244a8.826 8.826 0 0 1 1.603-.653l.499-.15Zm.682-4.823c-.724 0-1.328.456-1.559 1.11l-.003.009-.696 2.1c-.336.119-.662.251-.983.4L9.165 4.53a1.623 1.623 0 0 0-1.937.285L5.145 6.897a1.65 1.65 0 0 0-.313 1.912l.996 1.94c-.239.467-.45.957-.628 1.463l-2.086.695-.009.003a1.644 1.644 0 0 0-1.109 1.558v2.967c0 .724.456 1.328 1.11 1.559l.009.003 2.104.697c.158.444.342.875.548 1.293l-.907 1.752a1.623 1.623 0 0 0 .285 1.936l2.098 2.097.014.014a1.672 1.672 0 0 0 1.883.27l1.774-.918c.418.208.854.391 1.297.548l.696 2.088.003.009c.23.653.835 1.109 1.559 1.109h2.95c.724 0 1.328-.456 1.559-1.11l.003-.009.697-2.104c.444-.158.875-.342 1.293-.548l1.752.907a1.623 1.623 0 0 0 1.937-.285l2.097-2.098.013-.014a1.672 1.672 0 0 0 .27-1.883l-.918-1.774c.208-.418.392-.853.548-1.296l2.104-.697.009-.003a1.644 1.644 0 0 0 1.109-1.559v-2.982c0-.724-.456-1.328-1.11-1.559l-.008-.003-2.1-.696c-.174-.5-.38-.992-.625-1.466l.98-1.896a1.623 1.623 0 0 0-.286-1.936l-2.097-2.097-.015-.014a1.672 1.672 0 0 0-1.883-.27l-.007.004-2.091 1.085c-.318-.142-.643-.271-.972-.387L18.981 3.1l-.003-.01A1.644 1.644 0 0 0 17.42 1.98h-2.951Zm-2.632 13.956a4.108 4.108 0 1 1 8.215 0 4.108 4.108 0 0 1-8.215 0Zm4.107-6.108a6.107 6.107 0 1 0 0 12.215 6.107 6.107 0 0 0 0-12.215Z" fill="currentColor"/>
</svg>
